svgs/garmin_drive.svg

<?xml version="1.0" encoding="UTF-8" standalone="no"?>
<!-- Created with Inkscape (http://www.inkscape.org/) -->

<svg
   width="192"
   height="192"
   viewBox="0 0 50.799999 50.8"
   version="1.1"
   id="svg5"
   xml:space="preserve"
   xmlns="http://www.w3.org/2000/svg"
   xmlns:svg="http://www.w3.org/2000/svg"><defs
     id="defs2" /><g
     id="layer1"><path
       id="path1165"
       style="opacity:1;fill:none;fill-rule:evenodd;stroke:#000000;stroke-width:3.175;stroke-linecap:round;stroke-linejoin:round;stroke-miterlimit:0"
       d="m 18.254263,21.872402 a 8.9958057,8.9959211 0 0 1 2.779857,-0.440291 m 3.572129,-8e-4 h -3.439582 m -8.41323,12.673031 a 8.9958057,8.9959211 0 0 1 0.06261,-7.173957 m 12.434376,11.698843 a 8.9958057,8.9959211 0 0 1 -7.160758,0.437976 m 24.508251,-17.635891 -3.175,-3e-6 M 24.606248,26.987561 H 20.88029 m 3.725958,3.571904 a 3.5719032,3.5719054 0 0 1 -3.565669,3.5719 3.5719032,3.5719054 0 0 1 -3.578115,-3.559431 3.5719032,3.5719054 0 0 1 3.553179,-3.584325 m 3.590606,-11.112546 h -3.725958 m 23.305125,11.1125 -8.466667,-3e-6 m 8.466667,-11.112496 -8.466667,-3e-6 m 7.8e-5,14.551922 A 14.552121,14.552121 0 0 1 21.192104,44.979082 14.552121,14.552121 0 0 1 6.6146736,30.477779 14.552121,14.552121 0 0 1 21.090511,15.875061 M 24.606249,5.8208944 V 30.844798 M 35.718749,5.8208946 V 30.844797 m -5.55625,-6.50307 v 6.247628 m 0,-20.138252 v 6.247628" /></g></svg>

<svg width="192" height="192" viewBox="0 0 50.8 50.8" xml:space="preserve" xmlns="http://www.w3.org/2000/svg"><path style="opacity:1;fill:none;fill-rule:evenodd;stroke:#000;stroke-width:3.175;stroke-linecap:round;stroke-linejoin:round;stroke-miterlimit:0" d="M18.254 21.872a8.996 8.996 0 0 1 2.78-.44m3.572 0h-3.44m-8.413 12.672a8.996 8.996 0 0 1 .063-7.174m12.434 11.7a8.996 8.996 0 0 1-7.16.437m24.508-17.636h-3.175m-14.817 5.557H20.88m3.726 3.571a3.572 3.572 0 0 1-3.565 3.572 3.572 3.572 0 0 1-3.579-3.56 3.572 3.572 0 0 1 3.554-3.583m3.59-11.113H20.88m23.305 11.113H35.72m8.466-11.113H35.72m0 14.552a14.552 14.552 0 0 1-14.527 14.552A14.552 14.552 0 0 1 6.615 30.478 14.552 14.552 0 0 1 21.09 15.875m3.515-10.054v25.024M35.72 5.82v25.024m-5.557-6.503v6.247m0-20.138V16.7"/></svg>
